X:1
T:Giresun'un İçinde
T:Giresun'un İçinde
T:Notasyon: Musa Çetiner
T:www.gitaregitim.net
Z:Notasyon: Musa Çetiner
Z:www.gitaregitim.net
%%score { 1 | 2 }
L:1/8
M:7/8
K:C
V:1 treble-8 nm="Klasik Gitar" snm="Git."
V:2 tab stafflines=6 strings=E2,A2,D3,G3,B3,E4 
V:1
"Am" c c2 d2 e2 |"Am" e2- e e2 d2 |"G" g^fg e2 c2 |"Am" d2- d c2 c2 ::"Dm" ede d2 d2 | %5
w: Gi re su nun|i _ çin de|i ki _ so kak|a _ ra sı|Al _ tı kur şun|
"Dm" c2- c B2 B2 |"Am" dcd c2 c2 |"Am" B2- B A2 A2 |"G" c2 c B2 B2 |"Am" A2- A A2 A2 :| %10
w: at _ tı lar|üç _ te bı çak|ya _ ra sı|üç te bı çak|ya _ ra sı|
V:2
 !2!C !2!C2 !2!D2 !1!E2 | !1!E2- !1!E !1!E2 !2!D2 | !1!G!1!^F!1!G !1!E2 !2!C2 | %3
 !2!D2- !2!D !2!C2 !2!C2 :: !1!E!2!D!1!E !2!D2 !2!D2 | !2!C2- !2!C !2!B,2 !2!B,2 | %6
 !2!D!2!C!2!D !2!C2 !2!C2 | !2!B,2- !2!B, !3!A,2 !3!A,2 | !2!C2 !2!C !2!B,2 !2!B,2 | %9
 !3!A,2- !3!A, !3!A,2 !3!A,2 :| %10

